SVG_Azure_All/Cloud Simple Virtual Machine.svg

<?xml version="1.0" encoding="UTF-8" standalone="no"?>
<!-- Generated by Microsoft Visio, SVG Export Cloud Simple Virtual Machine.svg Page-1 -->

<svg
   xmlns:dc="http://purl.org/dc/elements/1.1/"
   xmlns:cc="http://creativecommons.org/ns#"
   xmlns:rdf="http://www.w3.org/1999/02/22-rdf-syntax-ns#"
   xmlns:svg="http://www.w3.org/2000/svg"
   xmlns="http://www.w3.org/2000/svg"
   xmlns:sodipodi="http://sodipodi.sourceforge.net/DTD/sodipodi-0.dtd"
   xmlns:inkscape="http://www.inkscape.org/namespaces/inkscape"
   width="0.78769213in"
   height="0.55165702in"
   viewBox="0 0 56.713831 39.719316"
   xml:space="preserve"
   class="st3"
   version="1.1"
   id="svg26"
   sodipodi:docname="Cloud Simple Virtual Machine.svg"
   style="font-size:12px;overflow:visible;color-interpolation-filters:sRGB;fill:none;fill-rule:evenodd;stroke-linecap:square;stroke-miterlimit:3"
   inkscape:version="0.92.5 (2060ec1f9f, 2020-04-08)"><metadata
   id="metadata32"><rdf:RDF><cc:Work
       rdf:about=""><dc:format>image/svg+xml</dc:format><dc:type
         rdf:resource="http://purl.org/dc/dcmitype/StillImage" /></cc:Work></rdf:RDF></metadata><defs
   id="defs30" /><sodipodi:namedview
   pagecolor="#ffffff"
   bordercolor="#666666"
   borderopacity="1"
   objecttolerance="10"
   gridtolerance="10"
   guidetolerance="10"
   inkscape:pageopacity="0"
   inkscape:pageshadow="2"
   inkscape:window-width="640"
   inkscape:window-height="480"
   id="namedview28"
   showgrid="false"
   inkscape:zoom="2.2788933"
   inkscape:cx="37.800174"
   inkscape:cy="6.427778"
   inkscape:window-x="0"
   inkscape:window-y="0"
   inkscape:window-maximized="0"
   inkscape:current-layer="svg26" />
	<style
   type="text/css"
   id="style2">
	<![CDATA[
		.st1 {fill:#83bc41;stroke:none;stroke-linecap:butt;stroke-width:1.09899}
		.st2 {fill:#496487;stroke:none;stroke-linecap:butt;stroke-width:1.09899}
		.st3 {fill:none;fill-rule:evenodd;font-size:12px;overflow:visible;stroke-linecap:square;stroke-miterlimit:3}
	]]>
	</style>

	<g
   id="g24"
   transform="translate(-5.6656213,-3.9361673)">
		<title
   id="title4">Page-1</title>
		<g
   id="group6684-1"
   transform="translate(5.66929,-34.0157)">
			<title
   id="title6">Cloud Simple Virtual Machine</title>
			<g
   id="shape6685-2"
   transform="translate(0,-0.0289961)">
				<title
   id="title8">path7</title>
				<path
   d="m 31.5,73.93 a 17.4316,18.8493 0 0 1 -2.04,1.23 22.7952,24.6491 0 0 1 -2.76,1.2 24.9406,26.969 0 0 1 -3.53,0.93 25.9329,28.042 0 0 1 -4.46,0.38 A 21.9504,23.7356 0 0 1 11.45,76.39 17.0427,18.4288 0 0 1 5.51,72.62 16.493,17.8343 0 0 1 1.49,66.46 19.2686,20.8357 0 0 1 0,58.01 20.2341,21.8797 0 0 1 1.45,49.48 16.3723,17.7039 0 0 1 5.47,43.2 a 17.083,18.4723 0 0 1 6.05,-3.85 22.7952,24.6491 0 0 1 7.49,-1.31 25.9329,28.042 0 0 1 5.77,0.6 15.0582,16.2829 0 0 1 3.87,1.45 9.74828,10.5411 0 0 1 1.08,0.77 3.7545,4.05985 0 0 1 1.49,5.08 2.38679,2.58091 0 0 1 -0.39,0.73 c -1.34,1.87 -4.12,0.78 -5.7,0 a 14.0123,15.1519 -180 0 0 -5.81,-1.16 13.5698,14.6735 -180 0 0 -4.38,0.74 9.38624,10.1496 -180 0 0 -3.53,2.28 10.0567,10.8746 -180 0 0 -2.35,3.81 13.1676,14.2385 -180 0 0 -0.85,5.42 13.4089,14.4995 -180 0 0 0.89,5.61 9.38624,10.1496 -180 0 0 2.5,3.82 10.1908,11.0196 -180 0 0 3.67,2.2 14.7498,15.9494 -180 0 0 4.49,0.68 13.9185,15.0504 -180 0 0 5.57,-1.01 25.0613,27.0995 -180 0 0 2.87,-1.54 z"
   class="st1"
   id="path10"
   inkscape:connector-curvature="0"
   style="fill:#83bc41;stroke:none;stroke-width:1.09898996;stroke-linecap:butt" />
			</g>
			<g
   id="shape6686-4"
   transform="translate(23.2108)">
				<title
   id="title13">path9</title>
				<path
   d="m 3,67.24 a 10.5796,11.4401 -180 0 0 1.73,0.98 30.9478,33.4648 -180 0 0 3.07,1.23 31.7389,34.3202 -180 0 0 4.19,1.09 29.3521,31.7393 -180 0 0 5.12,0.45 15.6884,16.9644 -180 0 0 5.87,-1.02 3.27178,3.53787 -180 0 0 2.28,-3.48 3.35223,3.62487 -180 0 0 -1.45,-3.18 12.068,13.0495 -180 0 0 -5.19,-1.53 L 13.26,61.1 A 25.3026,27.3605 0 0 1 8.21,60.01 13.0067,14.0645 0 0 1 4.18,57.88 8.79625,9.51165 0 0 1 1.6,54.54 9.56056,10.3381 0 0 1 0.67,49.8 a 10.3115,11.1501 0 0 1 0.86,-4.52 9.38624,10.1496 0 0 1 2.68,-3.77 13.5564,14.659 0 0 1 4.88,-2.58 26.7106,28.8829 0 0 1 7.3,-0.95 31.1087,33.6388 0 0 1 11.17,1.72 11.116,12.0201 0 0 1 2.3,1.36 3.24496,3.50887 0 0 1 1.34,4.71 c -1.19,2.42 -3.71,1.28 -3.94,1.15 a 16.6807,18.0373 -180 0 0 -1.82,-0.87 25.3294,27.3895 -180 0 0 -8.92,-1.61 c -5.36,0 -8.05,1.52 -8.05,4.56 a 3.01701,3.26238 -180 0 0 1.52,2.9 10.9685,11.8606 -180 0 0 4.36,1.37 l 7.04,1 a 18.7725,20.2993 0 0 1 8.91,3.42 8.20626,8.87367 0 0 1 3.18,7.64 9.88237,10.6861 0 0 1 -4.11,8.98 c -2.75,2.24 -6.7,3.36 -11.86,3.36 A 38.0277,41.1205 0 0 1 10.69,77.06 41.1117,44.4554 0 0 1 5.4,75.7 26.2949,28.4335 0 0 1 1.8,74.15 10.9551,11.8461 0 0 1 0,73.03 Z"
   class="st2"
   id="path15"
   inkscape:connector-curvature="0"
   style="fill:#496487;stroke:none;stroke-width:1.09898996;stroke-linecap:butt" />
			</g>
			<g
   id="shape6687-6"
   transform="translate(23.1706,-2.02993)">
				<title
   id="title18">path11</title>
				<path
   d="M 4.77,70.23 4.24,69.98 C 3.55,70.38 2.9,70.74 2.13,71.07 L 0.94,73.09 0,75.06 a 8.30012,8.97517 -180 0 0 1.73,1.16 8.82307,9.54065 -180 0 0 3.51,1.45 L 6.26,77.18 A 17.4316,18.8493 -180 0 0 8.3,75.94 L 5.52,70.59 Z"
   class="st1"
   id="path20"
   inkscape:connector-curvature="0"
   style="fill:#83bc41;stroke:none;stroke-width:1.09898996;stroke-linecap:butt" />
			</g>
		</g>
	</g>
</svg>

<?xml version="1.0" encoding="UTF-8" standalone="no"?>
<!DOCTYPE svg PUBLIC "-//W3C//DTD SVG 1.1//EN" "http://www.w3.org/Graphics/SVG/1.1/DTD/svg11.dtd">
<!-- Generated by Microsoft Visio, SVG Export Cloud Simple Virtual Machine.svg Page-1 -->
<svg xmlns="http://www.w3.org/2000/svg" xmlns:xlink="http://www.w3.org/1999/xlink" xmlns:ev="http://www.w3.org/2001/xml-events"
		width="0.944882in" height="1.07874in" viewBox="0 0 68.0315 77.6693" xml:space="preserve" color-interpolation-filters="sRGB"
		class="st3">
	<style type="text/css">
	<![CDATA[
		.st1 {fill:#83bc41;stroke:none;stroke-linecap:butt;stroke-width:1.09899}
		.st2 {fill:#496487;stroke:none;stroke-linecap:butt;stroke-width:1.09899}
		.st3 {fill:none;fill-rule:evenodd;font-size:12px;overflow:visible;stroke-linecap:square;stroke-miterlimit:3}
	]]>
	</style>

	<g>
		<title>Page-1</title>
		<g id="group6516-1" transform="translate(5.66929,-34.0157)">
			<title>Cloud Simple Virtual Machine</title>
			<g id="shape6517-2" transform="translate(0,-0.0289961)">
				<title>path7</title>
				<path d="M31.5 73.93 A17.4316 18.8493 0 0 1 29.46 75.16 A22.7952 24.6491 0 0 1 26.7 76.36 A24.9406 26.969 0 0 1 23.17
							 77.29 A25.9329 28.042 0 0 1 18.71 77.67 A21.9504 23.7356 0 0 1 11.45 76.39 A17.0427 18.4288 0 0 1 5.51
							 72.62 A16.493 17.8343 0 0 1 1.49 66.46 A19.2686 20.8357 0 0 1 -0 58.01 A20.2341 21.8797 0 0 1 1.45 49.48
							 A16.3723 17.7039 0 0 1 5.47 43.2 A17.083 18.4723 0 0 1 11.52 39.35 A22.7952 24.6491 0 0 1 19.01 38.04
							 A25.9329 28.042 0 0 1 24.78 38.64 A15.0582 16.2829 0 0 1 28.65 40.09 A9.74828 10.5411 0 0 1 29.73 40.86
							 A3.7545 4.05985 0 0 1 31.22 45.94 A2.38679 2.58091 0 0 1 30.83 46.67 C29.49 48.54 26.71 47.45 25.13
							 46.67 A14.0123 15.1519 -180 0 0 19.32 45.51 A13.5698 14.6735 -180 0 0 14.94 46.25 A9.38624 10.1496 -180
							 0 0 11.41 48.53 A10.0567 10.8746 -180 0 0 9.06 52.34 A13.1676 14.2385 -180 0 0 8.21 57.76 A13.4089 14.4995
							 -180 0 0 9.1 63.37 A9.38624 10.1496 -180 0 0 11.6 67.19 A10.1908 11.0196 -180 0 0 15.27 69.39 A14.7498
							 15.9494 -180 0 0 19.76 70.07 A13.9185 15.0504 -180 0 0 25.33 69.06 A25.0613 27.0995 -180 0 0 28.2 67.52
							 L31.5 73.93 Z" class="st1"/>
			</g>
			<g id="shape6518-4" transform="translate(23.2108,0)">
				<title>path9</title>
				<path d="M3 67.24 A10.5796 11.4401 -180 0 0 4.73 68.22 A30.9478 33.4648 -180 0 0 7.8 69.45 A31.7389 34.3202 -180
							 0 0 11.99 70.54 A29.3521 31.7393 -180 0 0 17.11 70.99 A15.6884 16.9644 -180 0 0 22.98 69.97 A3.27178
							 3.53787 -180 0 0 25.26 66.49 A3.35223 3.62487 -180 0 0 23.81 63.31 A12.068 13.0495 -180 0 0 18.62 61.78
							 L13.26 61.1 A25.3026 27.3605 0 0 1 8.21 60.01 A13.0067 14.0645 0 0 1 4.18 57.88 A8.79625 9.51165 0 0
							 1 1.6 54.54 A9.56056 10.3381 0 0 1 0.67 49.8 A10.3115 11.1501 0 0 1 1.53 45.28 A9.38624 10.1496 0 0
							 1 4.21 41.51 A13.5564 14.659 0 0 1 9.09 38.93 A26.7106 28.8829 0 0 1 16.39 37.98 A31.1087 33.6388 0
							 0 1 27.56 39.7 A11.116 12.0201 0 0 1 29.86 41.06 A3.24496 3.50887 0 0 1 31.2 45.77 C30.01 48.19 27.49
							 47.05 27.26 46.92 A16.6807 18.0373 -180 0 0 25.44 46.05 A25.3294 27.3895 -180 0 0 16.52 44.44 C11.16
							 44.44 8.47 45.96 8.47 49 A3.01701 3.26238 -180 0 0 9.99 51.9 A10.9685 11.8606 -180 0 0 14.35 53.27 L21.39
							 54.27 A18.7725 20.2993 0 0 1 30.3 57.69 A8.20626 8.87367 0 0 1 33.48 65.33 A9.88237 10.6861 0 0 1 29.37
							 74.31 C26.62 76.55 22.67 77.67 17.51 77.67 A38.0277 41.1205 0 0 1 10.69 77.06 A41.1117 44.4554 0 0 1
							 5.4 75.7 A26.2949 28.4335 0 0 1 1.8 74.15 A10.9551 11.8461 0 0 1 -0 73.03 L3 67.24 Z" class="st2"/>
			</g>
			<g id="shape6519-6" transform="translate(23.1706,-2.02993)">
				<title>path11</title>
				<path d="M4.77 70.23 L4.24 69.98 C3.55 70.38 2.9 70.74 2.13 71.07 L0.94 73.09 L0 75.06 A8.30012 8.97517 -180 0 0
							 1.73 76.22 A8.82307 9.54065 -180 0 0 5.24 77.67 L6.26 77.18 A17.4316 18.8493 -180 0 0 8.3 75.94 L5.52
							 70.59 L4.77 70.23 Z" class="st1"/>
			</g>
		</g>
	</g>
</svg>
